X: 17
T: Good Natured Man, The
C: James Hill
Z: RobSheldrick
S: https://thesession.org/tunes/312#setting51744
R: hornpipe
M: 4/4
L: 1/8
K: Fmaj
f2af cefc|AFcA FAGA|B5 AGF|EFDE C2 z2|
f2af cefc|AdcA FAGA|Bc{c}dc ~BAGE|~G2 FE F4|
fa{b}af c3B|Ac2A F3A|d5 cBA|GFED C3 z|
fa{b}af cffc|AdcA FAGA|DBdc ~BAGE|~G2 FE F2 AB|
|:c3A f3e|d3B g3 f|e3gf3g|ecge cede|
f2af cffc|AdcA FAGA|Bc{c}dc ~BAGE|~G2 FE F2:|

